assets/sonr-icons/scanner-barcode.svg

<svg xmlns="http://www.w3.org/2000/svg" width="24" height="24" fill="none" viewBox="0 0 24 24"><path fill="#000" d="M3 12C3 11.448 3.448 11 4 11H20C20.552 11 21 11.448 21 12C21 12.552 20.552 13 20 13H4C3.448 13 3 12.552 3 12ZM8 2.99999H7.863C7.067 2.99899 6.477 2.99899 5.966 3.13599C4.585 3.50599 3.507 4.58399 3.138 5.96399C3.001 6.47599 3.001 7.06699 3.001 7.86099V7.99799C3.001 8.54999 3.449 8.99799 4.001 8.99799C4.553 8.99799 5.001 8.54999 5.001 7.99799C5.001 7.00399 5.009 6.70299 5.069 6.47999C5.254 5.78999 5.793 5.25099 6.484 5.06599C6.706 5.00699 7.008 4.99799 8.002 4.99799C8.554 4.99799 9.002 4.54999 9.002 3.99799C9.002 3.44599 8.554 2.99799 8.002 2.99799L8.001 2.99899L8 2.99999ZM16 21H16.137C16.933 21.001 17.523 21.001 18.035 20.864C19.415 20.494 20.493 19.416 20.863 18.036C21 17.524 21 16.934 21 16.138V16.001C21 15.449 20.552 15.001 20 15.001C19.448 15.001 19 15.449 19 16.001C19 16.996 18.992 17.296 18.932 17.518C18.747 18.208 18.208 18.747 17.518 18.933C17.296 18.992 16.994 19.001 16.001 19.001C15.449 19.001 15.001 19.449 15.001 20.001C15.001 20.553 15.449 21.001 16.001 21.001L16 21ZM3 16.138V16.001C3 15.449 3.448 15.001 4 15.001C4.552 15.001 5 15.449 5 16.001C5 16.996 5.008 17.296 5.068 17.518C5.253 18.208 5.792 18.747 6.483 18.933C6.705 18.992 7.007 19.001 8.001 19.001C8.553 19.001 9.001 19.449 9.001 20.001C9.001 20.553 8.553 21.001 8.001 21.001H7.864C7.069 21.002 6.478 21.002 5.967 20.865C4.586 20.495 3.508 19.417 3.139 18.037C3.002 17.526 3.002 16.935 3.002 16.139L3 16.138ZM21 7.99999V7.86199C21.001 7.06699 21.001 6.47599 20.864 5.96499C20.494 4.58399 19.416 3.50699 18.036 3.13699C17.524 2.99999 16.934 3.00099 16.138 3.00099H16.001C15.449 3.00099 15.001 3.44899 15.001 4.00099C15.001 4.55299 15.449 5.00099 16.001 5.00099C16.996 5.00099 17.296 5.00899 17.518 5.06899C18.208 5.25399 18.747 5.79299 18.933 6.48299C18.992 6.70499 19.001 7.00699 19.001 8.00099C19.001 8.55299 19.449 9.00099 20.001 9.00099C20.553 9.00099 21.001 8.55299 21.001 8.00099L21 7.99999Z"/></svg>

<svg xmlns="http://www.w3.org/2000/svg" width="24" height="24" fill="none"><path fill="currentColor" d="M3 12a1 1 0 0 1 1-1h16a1 1 0 0 1 0 2H4a1 1 0 0 1-1-1m5-9h-.137c-.796-.001-1.386-.001-1.897.136a4 4 0 0 0-2.828 2.828c-.137.512-.137 1.103-.137 1.897v.137a1 1 0 0 0 2 0c0-.994.008-1.295.068-1.518a2 2 0 0 1 1.415-1.414c.222-.059.524-.068 1.518-.068a1 1 0 0 0 0-2l-.001.001zm8 18h.137c.796.001 1.386.001 1.898-.136a4 4 0 0 0 2.828-2.828c.137-.512.137-1.102.137-1.898v-.137a1 1 0 0 0-2 0c0 .995-.008 1.295-.068 1.517a2 2 0 0 1-1.414 1.415c-.222.059-.524.068-1.517.068a1 1 0 0 0 0 2zM3 16.138v-.137a1 1 0 0 1 2 0c0 .995.008 1.295.068 1.517.185.69.724 1.229 1.415 1.415.222.059.524.068 1.518.068a1 1 0 0 1 0 2h-.137c-.795.001-1.386.001-1.897-.136a4 4 0 0 1-2.828-2.828c-.137-.511-.137-1.102-.137-1.898zM21 8v-.138c.001-.795.001-1.386-.136-1.897a4 4 0 0 0-2.828-2.828c-.512-.137-1.102-.136-1.898-.136h-.137a1 1 0 0 0 0 2c.995 0 1.295.008 1.517.068.69.185 1.229.724 1.415 1.414.059.222.068.524.068 1.518a1 1 0 0 0 2 0z"/></svg>
